res/AutodafeKnobGreenBig.svg

<svg width="50" height="50" viewBox="0 0 50 50" fill="none" xmlns="http://www.w3.org/2000/svg">
<path d="M49.75 25C49.75 38.67 38.669 49.75 25 49.75C11.331 49.75 0.25 38.67 0.25 25C0.25 11.331 11.331 0.25 25 0.25C38.669 0.25 49.75 11.331 49.75 25Z" fill="#005B2F"/>
<path d="M8.12793 12.398L2.12793 33.784C5.66093 42.974 14.5649 49.5 25.0009 49.5C35.4159 49.5 44.3069 42.998 47.8529 33.834L41.7299 11.925L8.12793 12.398Z" fill="#014220"/>
<path d="M49.5 25C49.5 38.531 38.531 49.5 25 49.5C11.469 49.5 0.5 38.53 0.5 25C0.5 11.47 11.469 0.5 25 0.5C38.531 0.5 49.5 11.47 49.5 25ZM48.016 25C48.016 12.31 37.691 1.984 25 1.984C12.309 1.984 1.985 12.31 1.985 25C1.985 37.69 12.309 48.016 25 48.016C37.691 48.016 48.016 37.689 48.016 25Z" fill="#00773D"/>
<path d="M27.1239 49.4029C27.6859 49.3529 28.2429 49.2929 28.7929 49.2069C28.8429 49.1989 28.8919 49.1869 28.9399 49.1799C29.4569 49.0969 29.9649 48.9949 30.4689 48.8799C30.5859 48.8529 30.7029 48.8269 30.8179 48.7989C31.3549 48.6679 31.8869 48.5219 32.4099 48.3559C32.4759 48.3359 32.5419 48.3109 32.6079 48.2909C33.0889 48.1329 33.5639 47.9609 34.0319 47.7729C34.1209 47.7389 34.2099 47.7059 34.2979 47.6689C34.8109 47.4589 35.3149 47.2309 35.8099 46.9879C35.8729 46.9569 35.9339 46.9239 35.9979 46.8909C36.4659 46.6559 36.9269 46.4059 37.3769 46.1399C37.4249 46.1139 37.4729 46.0869 37.5209 46.0579C38.0069 45.7679 38.4829 45.4619 38.9469 45.1389C38.9959 45.1049 39.0429 45.0719 39.0909 45.0369C40.0339 44.3719 40.9309 43.6409 41.7709 42.8519C41.8009 42.8239 41.8329 42.7939 41.8619 42.7639C42.7119 41.9589 43.5039 41.0919 44.2299 40.1719C44.2459 40.1539 44.2599 40.1339 44.2749 40.1149C45.0099 39.1769 45.6789 38.1869 46.2729 37.1489C46.2779 37.1389 46.2829 37.1309 46.2889 37.1239C46.8889 36.0729 47.4139 34.9729 47.8539 33.8319L47.1399 31.2759C44.3969 40.9249 35.5149 48.0149 24.9999 48.0149C14.4669 48.0149 5.56891 40.8989 2.84691 31.2229L2.12891 33.7849C2.56791 34.9279 3.09191 36.0309 3.68991 37.0839C3.69591 37.0949 3.70291 37.1049 3.70891 37.1179C4.30091 38.1559 4.96791 39.1449 5.69991 40.0819C5.71791 40.1049 5.73591 40.1299 5.75491 40.1529C6.47791 41.0709 7.26591 41.9329 8.11091 42.7389C8.14591 42.7719 8.18091 42.8059 8.21691 42.8409C9.05191 43.6279 9.94391 44.3539 10.8829 45.0179C10.9359 45.0559 10.9879 45.0939 11.0419 45.1319C11.5049 45.4539 11.9799 45.7609 12.4659 46.0509C12.5099 46.0779 12.5549 46.1019 12.5989 46.1289C13.0499 46.3929 13.5099 46.6429 13.9789 46.8809C14.0459 46.9149 14.1129 46.9499 14.1799 46.9839C14.6749 47.2269 15.1789 47.4559 15.6909 47.6669C15.7769 47.7019 15.8649 47.7339 15.9519 47.7689C16.4189 47.9559 16.8929 48.1279 17.3729 48.2859C17.4429 48.3069 17.5119 48.3349 17.5819 48.3559C18.1049 48.5219 18.6369 48.6679 19.1739 48.7999C19.2899 48.8269 19.4059 48.8529 19.5219 48.8799C20.0239 48.9949 20.5319 49.0959 21.0459 49.1789C21.0989 49.1879 21.1499 49.1999 21.2039 49.2079C21.7539 49.2939 22.3119 49.3549 22.8739 49.4039C23.0069 49.4159 23.1409 49.4249 23.2739 49.4339C23.8449 49.4719 24.4179 49.4999 24.9999 49.4999C25.5819 49.4999 26.1539 49.4719 26.7239 49.4329C26.8559 49.4239 26.9899 49.4139 27.1239 49.4029Z" fill="#00582D"/>
<path d="M15.031 43.0621C12.744 38.0571 9.13803 33.5931 5.03303 30.5241C4.34803 30.0101 4.14603 29.1641 4.55103 28.4101C6.97403 23.8901 8.13503 18.3151 8.11803 12.7781C8.11603 11.9211 8.64403 11.3001 9.47003 11.0821C14.34 9.7901 19.518 7.3291 23.915 4.1241C24.607 3.6221 25.425 3.5801 26.084 4.1241C30.408 7.7051 35.62 10.1471 40.53 11.0821C41.37 11.2411 41.903 11.9211 41.882 12.7771C41.751 18.1541 42.986 23.7441 45.449 28.4091C45.848 29.1651 45.644 30.0011 44.967 30.5231C40.747 33.7611 37.097 38.1761 34.969 43.0601C34.627 43.8441 33.842 44.2091 33.012 43.9981C27.34 42.5501 21.518 42.8751 16.992 43.9971C16.157 44.2041 15.388 43.8431 15.031 43.0621Z" fill="#00562B"/>
<path d="M15.031 43.0622C12.744 38.0572 9.13803 33.5932 5.03303 30.5242C4.34803 30.0102 4.14603 29.1642 4.55103 28.4102C6.97403 23.8902 42.986 23.7452 45.449 28.4102C45.848 29.1662 45.644 30.0022 44.967 30.5242C40.747 33.7622 37.097 38.1772 34.969 43.0612C34.627 43.8452 33.842 44.2102 33.012 43.9992C27.34 42.5512 21.518 42.8762 16.992 43.9982C16.157 44.2042 15.388 43.8432 15.031 43.0622Z" fill="#00441E"/>
<path d="M15.0311 43.062C13.3961 37.773 9.82408 33.293 5.03308 30.524C4.29308 30.094 4.06908 29.117 4.55108 28.41C7.66408 23.834 8.93908 18.25 8.11808 12.778C7.99108 11.931 8.61708 11.147 9.47008 11.083C14.9881 10.665 20.1491 8.17902 23.9151 4.12502C24.4981 3.49902 25.5021 3.49902 26.0841 4.12502C29.8501 8.17902 35.0121 10.665 40.5301 11.083C41.3831 11.147 42.0091 11.932 41.8821 12.778C41.0601 18.25 42.3351 23.834 45.4491 28.41C45.9301 29.117 45.7071 30.095 44.9671 30.524C40.1761 33.293 36.6041 37.773 34.9691 43.061C34.7171 43.878 33.8101 44.311 33.0121 43.999C27.3851 41.806 21.5561 42.229 16.9921 43.998C16.1901 44.307 15.2851 43.883 15.0311 43.062Z" fill="#00602B"/>
<path d="M15.0311 43.062C13.3961 37.773 9.82408 33.293 5.03308 30.524C4.29308 30.094 4.06908 29.117 4.55108 28.41C7.66408 23.834 8.93908 18.25 8.11808 12.778C7.99108 11.931 8.61708 11.147 9.47008 11.083C14.9881 10.665 20.1491 8.17902 23.9151 4.12502C24.4981 3.49902 25.5021 3.49902 26.0841 4.12502C29.8501 8.17902 35.0121 10.665 40.5301 11.083C41.3831 11.147 42.0091 11.932 41.8821 12.778C41.0601 18.25 42.3351 23.834 45.4491 28.41C45.9301 29.117 45.7071 30.095 44.9671 30.524C40.1761 33.293 36.6041 37.773 34.9691 43.061C34.7171 43.878 33.8101 44.311 33.0121 43.999C27.3851 41.806 21.5561 42.229 16.9921 43.998C16.1901 44.307 15.2851 43.883 15.0311 43.062Z" fill="#009042"/>
<path d="M15.1671 42.8151C13.5551 37.6661 10.0321 33.3031 5.30608 30.6061C4.57608 30.1891 4.32508 29.2131 4.83008 28.5461C8.17708 24.1311 9.50008 18.7041 8.34908 13.3261C8.17508 12.5101 8.84108 11.7371 9.68308 11.6741C15.1251 11.2681 20.2151 8.8481 23.9301 4.9011C24.5041 4.2911 25.4951 4.2911 26.0691 4.9011C29.7841 8.8481 34.8751 11.2681 40.3171 11.6741C41.1581 11.7371 41.7751 12.5021 41.6501 13.3261C40.8391 18.6541 42.0971 24.0921 45.1691 28.5461C45.6451 29.2351 45.4241 30.1891 44.6931 30.6061C39.9671 33.3021 36.4451 37.6651 34.8331 42.8141C34.5841 43.6111 33.6891 44.0321 32.9021 43.7271C27.3521 41.5911 21.6031 42.0031 17.1021 43.7251C16.3101 44.0291 15.4171 43.6161 15.1671 42.8151Z" fill="#00602B"/>
<path d="M15.0311 43.0741C13.3961 37.8521 9.82411 33.4301 5.03311 30.6951C4.29311 30.2721 4.24911 28.1441 4.76011 28.8221C12.7411 39.3801 33.3881 42.5471 45.2941 28.7681C45.8481 28.1271 45.7071 30.2721 44.9671 30.6951C40.1761 33.4301 36.6041 37.8511 34.9691 43.0731C34.7171 43.8821 33.8101 44.3061 33.0121 44.0011C27.3851 41.8351 21.5561 42.2531 16.9921 43.9981C16.1901 44.3041 15.2851 43.8861 15.0311 43.0741Z" fill="#00592D"/>
<path d="M25 25.113C24.585 25.113 24.25 24.777 24.25 24.363V5.552C24.25 5.138 24.585 4.802 25 4.802C25.414 4.802 25.75 5.138 25.75 5.552V24.363C25.75 24.777 25.414 25.113 25 25.113Z" fill="#F2F9F4"/>
</svg>

<?xml version="1.0" encoding="utf-8"?>
<!-- Generator: Adobe Illustrator 16.0.0, SVG Export Plug-In . SVG Version: 6.00 Build 0)  -->
<!DOCTYPE svg PUBLIC "-//W3C//DTD SVG 1.1//EN" "http://www.w3.org/Graphics/SVG/1.1/DTD/svg11.dtd">
<svg version="1.1" id="Layer_1" xmlns="http://www.w3.org/2000/svg" xmlns:xlink="http://www.w3.org/1999/xlink" x="0px" y="0px"
	 width="50px" height="50px" viewBox="0 0 50 50" enable-background="new 0 0 50 50" xml:space="preserve">
<rect fill="#E6E6E6" width="50" height="50"/>
<g>
	<defs>
		<rect id="SVGID_1_" width="50" height="50"/>
	</defs>
	<clipPath id="SVGID_2_">
		<use xlink:href="#SVGID_1_"  overflow="visible"/>
	</clipPath>
	<path clip-path="url(#SVGID_2_)" fill="#005B2F" d="M49.75,25c0,13.67-11.081,24.75-24.75,24.75S0.25,38.67,0.25,25
		C0.25,11.331,11.331,0.25,25,0.25S49.75,11.331,49.75,25"/>
</g>
<g>
	<defs>
		<rect id="SVGID_3_" width="50" height="50"/>
	</defs>
	<clipPath id="SVGID_4_">
		<use xlink:href="#SVGID_3_"  overflow="visible"/>
	</clipPath>
	<path clip-path="url(#SVGID_4_)" fill="#014220" d="M8.128,12.398l-6,21.386C5.661,42.974,14.565,49.5,25.001,49.5
		c10.415,0,19.306-6.502,22.852-15.666L41.73,11.925L8.128,12.398z"/>
</g>
<g>
	<defs>
		<rect id="SVGID_5_" width="50" height="50"/>
	</defs>
	<clipPath id="SVGID_6_">
		<use xlink:href="#SVGID_5_"  overflow="visible"/>
	</clipPath>
	<path clip-path="url(#SVGID_6_)" fill="#00773D" d="M49.5,25c0,13.531-10.969,24.5-24.5,24.5C11.469,49.5,0.5,38.53,0.5,25
		C0.5,11.47,11.469,0.5,25,0.5C38.531,0.5,49.5,11.47,49.5,25 M48.016,25C48.016,12.31,37.691,1.984,25,1.984
		C12.309,1.984,1.985,12.31,1.985,25S12.309,48.016,25,48.016C37.691,48.016,48.016,37.689,48.016,25"/>
	<path clip-path="url(#SVGID_6_)" fill="#00582D" d="M27.124,49.403c0.562-0.05,1.119-0.11,1.669-0.196
		c0.05-0.008,0.099-0.02,0.147-0.027c0.517-0.083,1.025-0.185,1.529-0.3c0.117-0.027,0.234-0.053,0.349-0.081
		c0.537-0.131,1.069-0.277,1.592-0.443c0.066-0.02,0.132-0.045,0.198-0.065c0.481-0.158,0.956-0.33,1.424-0.518
		c0.089-0.034,0.178-0.067,0.266-0.104c0.513-0.21,1.017-0.438,1.512-0.681c0.063-0.031,0.124-0.064,0.188-0.097
		c0.468-0.235,0.929-0.485,1.379-0.751c0.048-0.026,0.096-0.053,0.144-0.082c0.486-0.29,0.962-0.596,1.426-0.919
		c0.049-0.034,0.096-0.067,0.144-0.102c0.943-0.665,1.84-1.396,2.68-2.185c0.03-0.028,0.062-0.058,0.091-0.088
		c0.85-0.805,1.642-1.672,2.368-2.592c0.016-0.018,0.03-0.038,0.045-0.057c0.735-0.938,1.404-1.928,1.998-2.966
		c0.005-0.01,0.01-0.018,0.016-0.025c0.6-1.051,1.125-2.151,1.565-3.292l-0.714-2.556C44.397,40.925,35.515,48.015,25,48.015
		c-10.533,0-19.431-7.116-22.153-16.792l-0.718,2.562c0.439,1.143,0.963,2.246,1.561,3.299c0.006,0.011,0.013,0.021,0.019,0.034
		c0.592,1.038,1.259,2.027,1.991,2.964c0.018,0.023,0.036,0.048,0.055,0.071c0.723,0.918,1.511,1.78,2.356,2.586
		c0.035,0.033,0.07,0.067,0.106,0.102c0.835,0.787,1.727,1.513,2.666,2.177c0.053,0.038,0.105,0.076,0.159,0.114
		c0.463,0.322,0.938,0.629,1.424,0.919c0.044,0.027,0.089,0.051,0.133,0.078c0.451,0.264,0.911,0.514,1.38,0.752
		c0.067,0.034,0.134,0.069,0.201,0.103c0.495,0.243,0.999,0.472,1.511,0.683c0.086,0.035,0.174,0.067,0.261,0.102
		c0.467,0.187,0.941,0.359,1.421,0.517c0.07,0.021,0.139,0.049,0.209,0.07c0.523,0.166,1.055,0.312,1.592,0.444
		c0.116,0.027,0.232,0.053,0.348,0.08c0.502,0.115,1.01,0.216,1.524,0.299c0.053,0.009,0.104,0.021,0.158,0.029
		c0.55,0.086,1.108,0.147,1.67,0.196c0.133,0.012,0.267,0.021,0.4,0.03C23.845,49.472,24.418,49.5,25,49.5
		c0.582,0,1.154-0.028,1.724-0.067C26.856,49.424,26.99,49.414,27.124,49.403"/>
</g>
<g>
	<defs>
		<rect id="SVGID_7_" width="50" height="50"/>
	</defs>
	<clipPath id="SVGID_8_">
		<use xlink:href="#SVGID_7_"  overflow="visible"/>
	</clipPath>
	<path clip-path="url(#SVGID_8_)" fill="#00562B" d="M15.031,43.062c-2.287-5.005-5.893-9.469-9.998-12.538
		c-0.685-0.514-0.887-1.36-0.482-2.114c2.423-4.52,3.584-10.095,3.567-15.632C8.116,11.921,8.644,11.3,9.47,11.082
		c4.87-1.292,10.048-3.753,14.445-6.958c0.692-0.502,1.51-0.544,2.169,0c4.324,3.581,9.536,6.023,14.446,6.958
		c0.84,0.159,1.373,0.839,1.352,1.695c-0.131,5.377,1.104,10.967,3.567,15.632c0.399,0.756,0.195,1.592-0.482,2.114
		c-4.22,3.238-7.87,7.653-9.998,12.537c-0.342,0.784-1.127,1.149-1.957,0.938c-5.672-1.448-11.494-1.123-16.02-0.001
		C16.157,44.204,15.388,43.843,15.031,43.062"/>
	<path clip-path="url(#SVGID_8_)" fill="#00441E" d="M15.031,43.062c-2.287-5.005-5.893-9.469-9.998-12.538
		c-0.685-0.514-0.887-1.36-0.482-2.114c2.423-4.52,38.435-4.665,40.898,0c0.399,0.756,0.195,1.592-0.482,2.114
		c-4.22,3.238-7.87,7.653-9.998,12.537c-0.342,0.784-1.127,1.149-1.957,0.938c-5.672-1.448-11.494-1.123-16.02-0.001
		C16.157,44.204,15.388,43.843,15.031,43.062"/>
</g>
<g>
	<defs>
		<rect id="SVGID_9_" width="50" height="50"/>
	</defs>
	<clipPath id="SVGID_10_">
		<use xlink:href="#SVGID_9_"  overflow="visible"/>
	</clipPath>
	<path clip-path="url(#SVGID_10_)" fill="#00602B" d="M15.031,43.062c-1.635-5.289-5.207-9.769-9.998-12.538
		c-0.74-0.43-0.964-1.407-0.482-2.114c3.113-4.576,4.388-10.16,3.567-15.632c-0.127-0.847,0.499-1.631,1.352-1.695
		c5.518-0.418,10.679-2.904,14.445-6.958c0.583-0.626,1.587-0.626,2.169,0c3.766,4.054,8.928,6.54,14.446,6.958
		c0.853,0.064,1.479,0.849,1.352,1.695c-0.822,5.472,0.453,11.056,3.567,15.632c0.481,0.707,0.258,1.685-0.482,2.114
		c-4.791,2.769-8.363,7.249-9.998,12.537c-0.252,0.817-1.159,1.25-1.957,0.938c-5.627-2.193-11.456-1.77-16.02-0.001
		C16.19,44.307,15.285,43.883,15.031,43.062"/>
	<path clip-path="url(#SVGID_10_)" fill="#009042" d="M15.031,43.062c-1.635-5.289-5.207-9.769-9.998-12.538
		c-0.74-0.43-0.964-1.407-0.482-2.114c3.113-4.576,4.388-10.16,3.567-15.632c-0.127-0.847,0.499-1.631,1.352-1.695
		c5.518-0.418,10.679-2.904,14.445-6.958c0.583-0.626,1.587-0.626,2.169,0c3.766,4.054,8.928,6.54,14.446,6.958
		c0.853,0.064,1.479,0.849,1.352,1.695c-0.822,5.472,0.453,11.056,3.567,15.632c0.481,0.707,0.258,1.685-0.482,2.114
		c-4.791,2.769-8.363,7.249-9.998,12.537c-0.252,0.817-1.159,1.25-1.957,0.938c-5.627-2.193-11.456-1.77-16.02-0.001
		C16.19,44.307,15.285,43.883,15.031,43.062"/>
	<path clip-path="url(#SVGID_10_)" fill="#00602B" d="M15.167,42.815c-1.612-5.149-5.135-9.512-9.861-12.209
		c-0.73-0.417-0.981-1.393-0.476-2.06c3.347-4.415,4.67-9.842,3.519-15.22c-0.174-0.816,0.492-1.589,1.334-1.652
		c5.442-0.406,10.532-2.826,14.247-6.773c0.574-0.61,1.565-0.61,2.139,0c3.715,3.947,8.806,6.367,14.248,6.773
		c0.841,0.063,1.458,0.828,1.333,1.652c-0.811,5.328,0.447,10.766,3.519,15.22c0.476,0.689,0.255,1.643-0.476,2.06
		c-4.726,2.696-8.248,7.059-9.86,12.208c-0.249,0.797-1.144,1.218-1.931,0.913c-5.55-2.136-11.299-1.724-15.8-0.002
		C16.31,44.029,15.417,43.616,15.167,42.815"/>
	<path clip-path="url(#SVGID_10_)" fill="#00592D" d="M15.031,43.074c-1.635-5.222-5.207-9.644-9.998-12.379
		c-0.74-0.423-0.784-2.551-0.273-1.873c7.981,10.558,28.628,13.725,40.534-0.054c0.554-0.641,0.413,1.504-0.327,1.927
		c-4.791,2.735-8.363,7.156-9.998,12.378c-0.252,0.809-1.159,1.233-1.957,0.928c-5.627-2.166-11.456-1.748-16.02-0.003
		C16.19,44.304,15.285,43.886,15.031,43.074"/>
</g>
<g>
	<defs>
		<rect id="SVGID_11_" width="50" height="50"/>
	</defs>
	<clipPath id="SVGID_12_">
		<use xlink:href="#SVGID_11_"  overflow="visible"/>
	</clipPath>
	<path clip-path="url(#SVGID_12_)" fill="#F2F9F4" d="M25,25.113L25,25.113c-0.415,0-0.75-0.336-0.75-0.75V5.552
		c0-0.414,0.335-0.75,0.75-0.75c0.414,0,0.75,0.336,0.75,0.75v18.811C25.75,24.777,25.414,25.113,25,25.113"/>
</g>
</svg>
